www/assets/icons/send_to_mobile.svg

<svg xmlns="http://www.w3.org/2000/svg" width="24" height="24" viewBox="0 0 24 24" fill='currentColor'><path d="M15.5 17h2v4c0 1.1-.9 2-2 2h-10c-1.1 0-2-.9-2-2V3c0-1.1.9-1.99 2-1.99l10-.01c1.1 0 2 .9 2 2v4h-2V6h-10v12h10zm5-5-4-4v3h-5v2h5v3z"/></svg>

<svg width="24" height="24" viewBox="0 0 24 24" xmlns="http://www.w3.org/2000/svg" fill='currentColor'><path d="M15.5 17H17.5V21C17.5 22.1 16.6 23 15.5 23H5.5C4.4 23 3.5 22.1 3.5 21V3C3.5 1.9 4.4 1.01 5.5 1.01L15.5 1C16.6 1 17.5 1.9 17.5 3V7H15.5V6H5.5V18H15.5V17ZM20.5 12L16.5 8V11H11.5V13H16.5V16L20.5 12Z"/></svg>
